18x18/actions/text_line_spacing.svg

<svg xmlns="http://www.w3.org/2000/svg" width="18" height="18"><defs><style id="current-color-scheme" type="text/css"></style></defs><path style="fill:currentColor;color:#444" d="M12.5 1 10 4h1v8h-1l2.5 3 2.5-3h-1V4h1l-2.5-3zM1 2v2h7V2H1zm0 3v2h6V5H1zm0 3v2h8V8H1zm0 3v2h4v-2H1z" transform="translate(1 1)"/></svg>

<svg xmlns="http://www.w3.org/2000/svg" width="18" height="18" version="1.1">
 <defs>
  <style id="current-color-scheme" type="text/css">
   .ColorScheme-Text { color:#444444; } .ColorScheme-Highlight { color:#4285f4; } .ColorScheme-NeutralText { color:#ff9800; } .ColorScheme-PositiveText { color:#4caf50; } .ColorScheme-NegativeText { color:#f44336; }
  </style>
 </defs>
 <g transform="translate(1,1)">
  <path style="fill:currentColor" class="ColorScheme-Text" d="M 12.5 1 L 10 4 L 11 4 L 11 12 L 10 12 L 12.5 15 L 15 12 L 14 12 L 14 4 L 15 4 L 12.5 1 z M 1 2 L 1 4 L 8 4 L 8 2 L 1 2 z M 1 5 L 1 7 L 7 7 L 7 5 L 1 5 z M 1 8 L 1 10 L 9 10 L 9 8 L 1 8 z M 1 11 L 1 13 L 5 13 L 5 11 L 1 11 z"/>
 </g>
</svg>
